X:10
T:The High Road to tralee 
B:Terry "Cuz" Teahan "Sliabh Luachra on Parade" 1980
Z:Patrick Cavanagh
M:6/8
L:1/8
R:Jig
K:D
| A2F A2F | DED D2B | AFF A2F | G3 B3 | 
A2F A2F | DED D2F | GFG E2F | G3 B3 :| 
| ABc d2c | BAF A3 | ABc dcB | A3 d3 | 
ABc d2c | BcB A2F | GFG E2F | G3 B3 :|| 

